X: 17853
T: Horizonto
R: jig
M: 6/8
K: Eminor
|:BcB ABG|AFG EFD|B,2B, EFG|F2F DEF|
G2G GAG|F2F DEF|GFE FED|1 B,^CD EGA:|2 B,^CD E3||
C2C EFG|C2C EFG|B,2B, EFG|B,2B, EFG|
C2C EFG|C2C EFG|BcB ABG|AFG EFD|
C2C EFG|C2C EFG|B,2B, EFG|B,2B, EFG|
C2C EFG|C2C EFG|^C2^C EFG|^C2^C EFG||
c2 B2 AG|F3 FGA|B2 A2 GF|E3 EFG|
A2 G2 FE|^D3 DEF|GFG AGA|B3 BAB|
c2 d2 c2|F3 FGA|B2 c2 B2|E3 EFG|
A2 G2 FE|^D3 DEF|G2 F2 D2|E6||

